assets/images/logo-privy.svg

<svg xmlns="http://www.w3.org/2000/svg" width="405" height="99" fill="none" viewBox="0 0 405 99"><path fill="#E42E2C" fill-rule="evenodd" d="M15.1019 84.3962C23.9727 93.2636 36.2277 98.7481 49.7641 98.7481C63.3003 98.7481 75.5552 93.2636 84.4258 84.3962L153.75 15.1C144.879 6.23264 132.624 0.748108 119.088 0.748108C105.552 0.748108 93.2967 6.23264 84.4261 15.0999L84.426 15.1C75.5552 6.23264 63.3003 0.748108 49.7642 0.748108C20.6755 0.748108 2.26896 22.611 0.75 50.4748C0.942621 63.7171 6.39037 75.688 15.1019 84.3962Z" clip-rule="evenodd"/><path fill="url(#paint0_linear)" fill-rule="evenodd" d="M84.75 15.1604C75.8449 6.25571 63.5426 0.748108 49.954 0.748108C20.7527 0.748108 2.27485 22.7029 0.75 50.684C0.943367 63.982 6.41221 76.0033 15.1575 84.7481L84.75 15.1604Z" clip-rule="evenodd"/><path fill="#E42E2C" fill-rule="evenodd" d="M272.231 14.0806C275.009 14.0806 277.262 11.824 277.262 9.0403C277.262 6.25662 275.009 4 272.231 4C269.452 4 267.2 6.25662 267.2 9.0403C267.2 11.824 269.452 14.0806 272.231 14.0806ZM268.189 20.9622H276.179V77.1149H268.189V20.9622ZM224.948 48.7478H224.946V48.7487V48.9962V49.0004V49.0049V49.0093V49.0135V49.018V49.0224V49.0267V49.0311V49.0345V49.0379V49.0411V49.0445V49.0478V49.0512V49.0546V49.058V49.0612V49.0646V49.068V49.0713V49.0747V49.0779V49.0813V49.0847V77.1151H232.936V68.6666V48.7478H232.938C233.089 37.7888 242.003 28.9514 252.978 28.9514C254.77 28.9514 256.507 29.1871 258.16 29.6294L260.198 22.011C257.878 21.3871 255.44 21.0543 252.924 21.0543C237.584 21.0543 225.128 33.4222 224.948 48.7478ZM161.001 49.0307H161V49.0309V49.0849V93.9822H168.99V68.696C174.069 73.8907 181.147 77.1153 188.978 77.1153C204.43 77.1153 216.956 64.5657 216.956 49.0849C216.956 33.6041 204.43 21.0545 188.978 21.0545C173.544 21.0545 161.03 33.5749 161.001 49.0307ZM209.073 49.0307C209.073 37.9415 200.1 28.9516 189.032 28.9516C177.963 28.9516 168.99 37.9415 168.99 49.0307C168.99 60.1199 177.963 69.1097 189.032 69.1097C200.1 69.1097 209.073 60.1199 209.073 49.0307ZM316.659 68.1272L340.125 21.049L340.168 20.9622H331.236L331.193 21.0488L312.184 59.185L293.102 21.0488L293.058 20.9622H284.127L284.17 21.0488L307.727 68.1272L312.201 77.0696L316.659 68.1272ZM358.785 93.982L371.673 68.1272L348.116 21.0488L348.072 20.9622H357.004L357.048 21.0488L376.13 59.185L395.139 21.0488L395.182 20.9622H404.114L404.071 21.049L380.605 68.1272L376.147 77.0696L367.717 93.982H358.785Z" clip-rule="evenodd"/><defs><linearGradient id="paint0_linear" x1="6.787" x2="58.267" y1="57.522" y2="110.488" gradientUnits="userSpaceOnUse"><stop stop-opacity=".01"/><stop offset=".103" stop-opacity=".054"/><stop offset=".197" stop-opacity=".106"/><stop offset=".303" stop-opacity=".192"/><stop offset=".387" stop-opacity=".245"/><stop offset="1"/></linearGradient></defs></svg>

<svg xmlns="http://www.w3.org/2000/svg" width="405" height="99" fill="none" viewBox="0 0 405 99"><path fill="#E42E2C" fill-rule="evenodd" d="M15.102 84.396c8.87 8.868 21.126 14.352 34.662 14.352s25.791-5.484 34.662-14.352L153.75 15.1C144.879 6.233 132.624.748 119.088.748S93.297 6.233 84.426 15.1C75.556 6.233 63.3.748 49.764.748 20.675.748 2.27 22.611.75 50.475c.193 13.242 5.64 25.213 14.352 33.921" clip-rule="evenodd"/><path fill="url(#a)" fill-rule="evenodd" d="M84.75 15.16C75.845 6.256 63.543.748 49.954.748 20.753.748 2.274 22.703.75 50.684c.193 13.298 5.662 25.32 14.408 34.064z" clip-rule="evenodd"/><path fill="#E42E2C" fill-rule="evenodd" d="M272.231 14.08a5.036 5.036 0 0 0 5.031-5.04A5.036 5.036 0 0 0 272.231 4a5.035 5.035 0 0 0-5.031 5.04 5.035 5.035 0 0 0 5.031 5.04m-4.042 6.882h7.99v56.153h-7.99zm-43.241 27.786h-.002v28.367h7.99V48.747h.002c.151-10.958 9.065-19.796 20.04-19.796 1.792 0 3.529.236 5.182.678l2.038-7.618a28 28 0 0 0-7.274-.957c-15.34 0-27.796 12.368-27.976 27.694m-63.947.283H161v44.951h7.99V68.696c5.079 5.195 12.157 8.42 19.988 8.42 15.452 0 27.978-12.55 27.978-28.031s-12.526-28.03-27.978-28.03c-15.434 0-27.948 12.52-27.977 27.976m48.072 0c0-11.09-8.973-20.08-20.041-20.08-11.069 0-20.042 8.99-20.042 20.08s8.973 20.079 20.042 20.079c11.068 0 20.041-8.99 20.041-20.08m107.586 19.096 23.466-47.078.043-.087h-8.932l-.043.087-19.009 38.136-19.082-38.136-.044-.087h-8.931l.043.087 23.557 47.078 4.474 8.943zm42.126 25.855 12.888-25.855-23.557-47.078-.044-.087h8.932l.044.087 19.082 38.136 19.009-38.136.043-.087h8.932l-.043.087-23.466 47.078-4.458 8.943-8.43 16.912z" clip-rule="evenodd"/><defs><linearGradient id="a" x1="6.787" x2="58.267" y1="57.522" y2="110.488" gradientUnits="userSpaceOnUse"><stop stop-opacity=".01"/><stop offset=".103" stop-opacity=".054"/><stop offset=".197" stop-opacity=".106"/><stop offset=".303" stop-opacity=".192"/><stop offset=".387" stop-opacity=".245"/><stop offset="1"/></linearGradient></defs></svg>
